build/svg/cmd/sc_splitcell.svg

<svg xmlns="http://www.w3.org/2000/svg" viewBox="0 0 16 16"><path fill="#fff" d="M3 3h10v10H3z"/><path d="M5 2C3 2 2 2 2 4v8c0 2 1 2 3 2h6c2 0 3 0 3-2V4c0-2-1-2-3-2zM3 4c0-1 1-1 2-1h1v1h1V3h2v1h1V3h1c1 0 2 0 2 1v1h-2v1h2v3h-2v1h2v2c0 1-1 1-2 1h-1v-2H9v2H7v-2H6v2H5c-1 0-2 0-2-1v-2h2V9H3V6h2V5H3z" fill="#6d6d6d"/><path d="M5 4v7h6V4zm1 1h4v1L9 7.5 10 9v1H6V9l1-1.5L6 6z" fill="#c7162b"/></svg>

<?xml version="1.0" encoding="UTF-8" standalone="no"?>
<svg
   xmlns:dc="http://purl.org/dc/elements/1.1/"
   xmlns:cc="http://creativecommons.org/ns#"
   xmlns:rdf="http://www.w3.org/1999/02/22-rdf-syntax-ns#"
   xmlns:svg="http://www.w3.org/2000/svg"
   xmlns="http://www.w3.org/2000/svg"
   xmlns:sodipodi="http://sodipodi.sourceforge.net/DTD/sodipodi-0.dtd"
   xmlns:inkscape="http://www.inkscape.org/namespaces/inkscape"
   viewBox="0 0 16 16"
   version="1.1"
   id="svg6"
   sodipodi:docname="sc_splitcell.svg"
   inkscape:version="0.92.4 (5da689c313, 2019-01-14)"
   inkscape:export-filename="/home/jupiter007/Libreoffice yaru theme fullcolor/build/cmd/sc_splitcell.png"
   inkscape:export-xdpi="95"
   inkscape:export-ydpi="95">
  <metadata
     id="metadata12">
    <rdf:RDF>
      <cc:Work
         rdf:about="">
        <dc:format>image/svg+xml</dc:format>
        <dc:type
           rdf:resource="http://purl.org/dc/dcmitype/StillImage" />
      </cc:Work>
    </rdf:RDF>
  </metadata>
  <defs
     id="defs10" />
  <sodipodi:namedview
     pagecolor="#ffffff"
     bordercolor="#666666"
     borderopacity="1"
     objecttolerance="10"
     gridtolerance="10"
     guidetolerance="10"
     inkscape:pageopacity="0"
     inkscape:pageshadow="2"
     inkscape:window-width="1920"
     inkscape:window-height="1011"
     id="namedview8"
     showgrid="true"
     inkscape:zoom="83.4386"
     inkscape:cx="6.2076684"
     inkscape:cy="4.9816482"
     inkscape:window-x="0"
     inkscape:window-y="32"
     inkscape:window-maximized="1"
     inkscape:current-layer="svg6">
    <inkscape:grid
       type="xygrid"
       id="grid822" />
  </sodipodi:namedview>
  <rect
     style="opacity:1;fill:#ffffff;fill-opacity:1;stroke:none;stroke-width:2;stroke-linecap:round;stroke-linejoin:round;stroke-miterlimit:4;stroke-dasharray:none;stroke-opacity:1"
     id="rect814"
     width="10"
     height="10"
     x="3"
     y="3" />
  <path
     d="M 5,2 C 3,2 2,2 2,4 v 8 c 0,2 1,2 3,2 h 4 1 1 c 2,0 3,0 3,-2 V 4 C 14,2 13,2 11,2 Z M 3,4 C 3,3 4,3 5,3 H 6 V 4 H 7 V 3 h 2 v 1 h 1 V 3 h 1 c 1,0 2,0 2,1 v 1 h -1 -1 v 1 h 1 1 v 3 h -1 -1 v 1 h 1 1 v 2 c 0,1 -1,1 -2,1 H 10 V 11 H 9 v 2 H 7 V 11 H 6 v 2 H 5 C 4,13 3,13 3,12 V 10 H 5 V 9 H 3 V 6 H 5 V 5 H 3 Z"
     id="path2"
     inkscape:connector-curvature="0"
     style="fill:#6d6d6d;fill-opacity:1"
     sodipodi:nodetypes="cccccccccccccccccccccccccccccccccccccccccccccccccccccccc" />
  <path
     d="m5 4v7h6v-7zm1 1h4v1l-1 1.5 1 1.5v1h-4v-1l1-1.5-1-1.5z"
     fill="#c7162b"
     id="path4" />
</svg>
